X: 3
T: The Man Of The House
R: reel
M: 4/4
L: 1/8
K: Dmin
|: D2 AD (3EFG AF | (3DDD AF GECE | [D2D2] AD (3EFG Ad |1 c{dc}AGB AGFE :|2 c{dc}AGB ADFA ||| defd efge | fedc dcAc | ~d3 e ~f3 a | gece fdde || fcAc fgaf | gfaf gfdf | afgf dfce | dAAG (3EFG AF ||


Tune 222	Setting 12907

